src/icons/pdf.svg

<svg viewBox="0 0 24 24" xmlns="http://www.w3.org/2000/svg">
  <path
    d="M13 9H18.5L13 3.5V9ZM6 2H14L20 8V20C20 20.5304 19.7893 21.0391 19.4142 21.4142C19.0391 21.7893 18.5304 22 18 22H6C5.46957 22 4.96086 21.7893 4.58579 21.4142C4.21071 21.0391 4 20.5304 4 20V4C4 3.46957 4.21071 2.96086 4.58579 2.58579C4.96086 2.21071 5.46957 2 6 2ZM10.93 12.44C11.34 13.34 11.86 14.08 12.46 14.59L12.87 14.91C12 15.07 10.8 15.35 9.53 15.84L9.42 15.88L9.92 14.84C10.37 13.97 10.7 13.18 10.93 12.44ZM17.41 16.25C17.59 16.07 17.68 15.84 17.69 15.59C17.72 15.39 17.67 15.2 17.57 15.04C17.28 14.57 16.53 14.35 15.29 14.35L14 14.42L13.13 13.84C12.5 13.32 11.93 12.41 11.53 11.28L11.57 11.14C11.9 9.81 12.21 8.2 11.55 7.54C11.4692 7.46175 11.3737 7.40025 11.269 7.35906C11.1643 7.31787 11.0525 7.2978 10.94 7.3H10.7C10.33 7.3 10 7.69 9.91 8.07C9.54 9.4 9.76 10.13 10.13 11.34V11.35C9.88 12.23 9.56 13.25 9.05 14.28L8.09 16.08L7.2 16.57C6 17.32 5.43 18.16 5.32 18.69C5.28 18.88 5.3 19.05 5.37 19.23L5.4 19.28L5.88 19.59L6.32 19.7C7.13 19.7 8.05 18.75 9.29 16.63L9.47 16.56C10.5 16.23 11.78 16 13.5 15.81C14.53 16.32 15.74 16.55 16.5 16.55C16.94 16.55 17.24 16.44 17.41 16.25ZM17 15.54L17.09 15.65C17.08 15.75 17.05 15.76 17 15.78H16.96L16.77 15.8C16.31 15.8 15.6 15.61 14.87 15.29C14.96 15.19 15 15.19 15.1 15.19C16.5 15.19 16.9 15.44 17 15.54ZM7.83 17C7.18 18.19 6.59 18.85 6.14 19C6.19 18.62 6.64 17.96 7.35 17.31L7.83 17ZM10.85 10.09C10.62 9.19 10.61 8.46 10.78 8.04L10.85 7.92L11 7.97C11.17 8.21 11.19 8.53 11.09 9.07L11.06 9.23L10.9 10.05L10.85 10.09Z"
    fill="#EF5350"
  />
</svg>

<svg viewBox="0 0 24 24" xmlns="http://www.w3.org/2000/svg">
  <path
    d="M13 9h5.5L13 3.5V9M6 2h8l6 6v12a2 2 0 0 1-2 2H6a2 2 0 0 1-2-2V4a2 2 0 0 1 2-2m4.93 10.44c.41.9.93 1.64 1.53 2.15l.41.32c-.87.16-2.07.44-3.34.93l-.11.04.5-1.04c.45-.87.78-1.66 1.01-2.4m6.48 3.81c.18-.18.27-.41.28-.66.03-.2-.02-.39-.12-.55-.29-.47-1.04-.69-2.28-.69l-1.29.07-.87-.58c-.63-.52-1.2-1.43-1.6-2.56l.04-.14c.33-1.33.64-2.94-.02-3.6a.853.853 0 0 0-.61-.24h-.24c-.37 0-.7.39-.79.77-.37 1.33-.15 2.06.22 3.27v.01c-.25.88-.57 1.9-1.08 2.93l-.96 1.8-.89.49c-1.2.75-1.77 1.59-1.88 2.12-.04.19-.02.36.05.54l.03.05.48.31.44.11c.81 0 1.73-.95 2.97-3.07l.18-.07c1.03-.33 2.31-.56 4.03-.75 1.03.51 2.24.74 3 .74.44 0 .74-.11.91-.3m-.41-.71.09.11c-.01.1-.04.11-.09.13h-.04l-.19.02c-.46 0-1.17-.19-1.9-.51.09-.1.13-.1.23-.1 1.4 0 1.8.25 1.9.35M7.83 17c-.65 1.19-1.24 1.85-1.69 2 .05-.38.5-1.04 1.21-1.69l.48-.31m3.02-6.91c-.23-.9-.24-1.63-.07-2.05l.07-.12.15.05c.17.24.19.56.09 1.1l-.03.16-.16.82z"
    fill="#ef5350"
  />
</svg>
